X: 3
%%measurenb 0
%%scale 0.7
T:Susanna fair
T:Tenor recorder
C:William Byrd
M:C|
L:1/4
K:Fmaj
z2 G2 A3 A | A2 z2 F2 G2 | B2 A2 G2 F2|
z E F G A2 G2 | B A2 G2 A =B2 |c2 G2 _B2 A2|
G2 z2 z E G D | F A c G B2 A2 | G2 D2 E A G2|
z2 z c B G A =B | c2 z2 z _B A F | G A B2 z A2 G-|
G^F/2E/2 F2 G2 z =B | =B c B4 z c | e2 d c2 =B c d | 
=B c2 B c2 z A | A A _B2 A2 F2|G2 z B A2 G2|
F3 E/2D/2 E2 F D-|D F>G A D F2 E |HF8 |]
z4 z2 F2 | B>A G G A/2B/2 c2 =B |c2 z2 z B A2 |
G2 F D G C F>G | E2 z2 z F E2 | D2 C G B F A>B| 
G A A =B c2 z c | c =B c A B G c2 |z2 z G A2 F2| 
E2 z E A2 G c-|c =B c A G3 F | G2 E2 D2 D2|
C4 z4 | z c =B>c d e c2 | z F E>F G A G2| 
D F2 E D2 z G | B2 A2 G2 z C- | C A2 G E2 z G |
B A G2 G c2 B |A F G A B G A2 | z C F A G F2 E | HF8 |]

